X:225
T:Michael Coleman's
Z: id:dc-reel-214
M:C
L:1/8
K:A Dorian
e4 d4|cBcd e2d2|e=fe^c dcdB|cABG EGD2|!
e^de^c =dcdB|cBcd e2d2|egfa gedB|cABG EGD2:|!
EAAc BGGB|cBcd e2d2|EAAc BGGB|cABG EGD2|!
EAAc BGGB|cBcd e2d2|egfa gedB|cABG EGD2:|!
